svg/business/candles_line.svg

<svg xmlns="http://www.w3.org/2000/svg" width="24" height="24" viewBox="0 0 24 24"><g fill="none" fill-rule="evenodd"><path d="M24,0 L24,24 L0,24 L0,0 L24,0 Z M12.5935,23.2578 L12.5819,23.2595 L12.5109,23.295 L12.4919,23.2987 L12.4767,23.295 L12.4057,23.2595 C12.3958,23.2564 12.387,23.259 12.3821,23.2649 L12.378,23.2758 L12.3609,23.7031 L12.3659,23.7235 L12.3769,23.7357 L12.4805,23.8097 L12.4953,23.8136 L12.5071,23.8097 L12.6107,23.7357 L12.6233,23.7197 L12.6267,23.7031 L12.6096,23.2758 C12.6076,23.2657 12.601,23.2593 12.5935,23.2578 Z M12.8584,23.1453 L12.8445,23.1473 L12.6598,23.2397 L12.6499,23.2499 L12.6472,23.2611 L12.6651,23.6906 L12.6699,23.7034 L12.6784,23.7105 L12.8793,23.8032 C12.8914,23.8069 12.9022,23.803 12.9078,23.7952 L12.9118,23.7812 L12.8777,23.1665 C12.8753,23.1546 12.8674,23.147 12.8584,23.1453 Z M12.143,23.1473 C12.1332,23.1424 12.1222,23.1453 12.1156,23.1526 L12.1099,23.1665 L12.0758,23.7812 C12.0751,23.7927 12.0828,23.8019 12.0926,23.8046 L12.1083,23.8032 L12.3092,23.7105 L12.3186,23.7024 L12.3225,23.6906 L12.3404,23.2611 L12.3372,23.2485 L12.3278,23.2397 L12.143,23.1473 Z"/><path fill="#09244B" d="M12,10 C13.0543909,10 13.9181678,10.81585 13.9945144,11.8507339 L14,12 L14,13 L19,13 C20.0543909,13 20.9181678,13.81585 20.9945144,14.8507339 L21,15 L21,20 C21,21.0543909 20.18415,21.9181678 19.1492661,21.9945144 L19,22 L6,22 C4.94563773,22 4.08183483,21.18415 4.00548573,20.1492661 L4,20 L4,12 C4,10.9456091 4.81587733,10.0818322 5.85073759,10.0054856 L6,10 L12,10 Z M19,15 L14,15 L14,20 L19,20 L19,15 Z M12,12 L6,12 L6,20 L12,20 L12,12 Z M16.6637,6.09037 C17.2795,6.37161 17.8454,6.87667 18.2573,7.44876 C18.6679,8.01909 19,8.76092 19,9.55556 C19,11.1226 17.6125,12.0000035 16.4271,12.0000035 C15.4917,12.0000035 14.6708,11.3498 14.2809,10.6004 C14.0712,10.1974 13.9512,9.70802 14.0189,9.18427 C14.0791875,8.71783375 14.2817281,8.27790344 14.6155352,7.89426379 L14.7666,7.73338 C14.9924571,7.51001714 15.1527796,7.29816694 15.2281714,7.00776431 L15.2587,6.8556 C15.3042,6.5442 15.4936,6.27235 15.7699,6.12182 C16.0463,5.97129 16.3774,5.95964 16.6637,6.09037 Z M16.642,8.62829 C16.4946,8.82531 16.3331,8.99708 16.1728,9.15552 C16.0187,9.30793 15.9514,9.4779 16.0551,9.67735 C16.1129333,9.78844167 16.2226417,9.92135278 16.3493292,9.9768125 L16.4271,10 L16.5231464,9.99286472 C16.650228,9.9741476 16.77114,9.919858 16.8589,9.84489 C16.9565,9.76145 17,9.66812 17,9.55556 C17,9.30854 16.8874,8.97292 16.642,8.62829 Z M9.05792,2.08071 C9.81136,2.4033 10.526,2.99456 11.054,3.68222 C11.5784,4.36498 12,5.25053 12,6.19445 C12,8.03365 10.2853,9.00000043 8.90284,9.00000043 C7.84142,9.00000043 6.84173,8.29556 6.34964,7.40886 C6.08931,6.93974 5.93897,6.36723 6.02355,5.754 C6.10938,5.13163 6.42523,4.55538 6.94645,4.0722 C7.28584556,3.75756889 7.53402926,3.44767062 7.64228737,3.01461756 L7.67623,2.8462 C7.72373,2.54103 7.90956,2.27494 8.17971,2.12527 C8.44986,1.97561 8.77401,1.95916 9.05792,2.08071 Z M9.15888,4.5484 C8.9181,4.93894 8.61598,5.25168 8.30613,5.53892 C8.03455,5.79068 7.91034,6.09949 8.0984,6.43837 C8.30002,6.80167 8.68772,7 8.90284,7 C9.21168,7 9.51265,6.89163 9.71945,6.72597 C9.91397,6.57016 10,6.3907 10,6.19445 C10,5.83302 9.82548,5.3661 9.46782,4.90036 C9.37115,4.77448 9.26706,4.65663 9.15888,4.5484 Z"/></g></svg>

<svg xmlns="http://www.w3.org/2000/svg" width="24" height="24"><g fill="none" fill-rule="evenodd"><path d="M24 0v24H0V0zM12.594 23.258l-.012.002-.071.035-.02.004-.014-.004-.071-.036c-.01-.003-.019 0-.024.006l-.004.01-.017.428.005.02.01.013.104.074.015.004.012-.004.104-.074.012-.016.004-.017-.017-.427c-.002-.01-.009-.017-.016-.018m.264-.113-.014.002-.184.093-.01.01-.003.011.018.43.005.012.008.008.201.092c.012.004.023 0 .029-.008l.004-.014-.034-.614c-.003-.012-.01-.02-.02-.022m-.715.002a.023.023 0 0 0-.027.006l-.006.014-.034.614c0 .012.007.02.017.024l.015-.002.201-.093.01-.008.003-.011.018-.43-.003-.012-.01-.01z"/><path fill="#09244B" d="M12 10a2 2 0 0 1 1.995 1.85L14 12v1h5a2 2 0 0 1 1.995 1.85L21 15v5a2 2 0 0 1-1.85 1.995L19 22H6a2 2 0 0 1-1.995-1.85L4 20v-8a2 2 0 0 1 1.85-1.995L6 10zm7 5h-5v5h5zm-7-3H6v8h6zm4.664-5.91c.615.282 1.181.787 1.593 1.359.41.57.743 1.312.743 2.107C19 11.123 17.613 12 16.427 12c-.935 0-1.756-.65-2.146-1.4a2.398 2.398 0 0 1-.262-1.416c.06-.466.263-.906.597-1.29l.15-.16c.226-.224.387-.436.462-.726l.03-.152a1 1 0 0 1 1.406-.766m-.022 2.538a4.71 4.71 0 0 1-.47.528c-.153.152-.22.322-.117.521a.683.683 0 0 0 .294.3l.078.023.096-.007a.679.679 0 0 0 .336-.148.362.362 0 0 0 .141-.29c0-.246-.113-.582-.358-.927M9.058 2.081c.753.322 1.468.914 1.996 1.601.524.683.946 1.569.946 2.512C12 8.034 10.285 9 8.903 9 7.84 9 6.842 8.296 6.35 7.409a2.655 2.655 0 0 1-.326-1.655c.085-.622.401-1.199.922-1.682.34-.314.588-.624.696-1.057l.034-.169a1 1 0 0 1 1.382-.765m.1 2.467c-.24.39-.542.704-.852.99-.271.253-.396.561-.208.9.202.364.59.562.805.562.309 0 .61-.108.816-.274.195-.156.281-.335.281-.532 0-.361-.175-.828-.532-1.294a3.606 3.606 0 0 0-.31-.352"/></g></svg>
